X:3406
T:Cooley's
T:Luttrell's Pass
S:sessions
R:Reel
O:Ireland
M:4/4
C:Joe Mills
K:EDor
EB {c}BA B2 EB | B2 AB dB AG | \
(3FED AD BD AD | FD AD BA GF | \
EB {c}BA B2 EB | B2AB defg |
afec dBAF |1 DEFD E2ED :|2 DEFD E2 |:\
gf |\
eB (3BBB eB gf | eB (3BBB ge dB | \
A2FA DA FA |
BA FA de fg |\
eB (3BBB eB gf | eB (3BBB de fg | \
af ec dB AF |1 DEFD E2 :|2 DEFD E4||**


